X: 28099
T: Mr. Kennedy North
R: reel
M: 4/4
K: Dmajor
A2|:d2 fd c2 ec|B2 dB A3 G|FAdA gfed|c2 e2 e2 A2|
d2 fd c2 ec|B2 dB A3 G|FAdg fedc|1 e2 d2 d2 A2:|2 e2 d2 d2 fg||
|:afdA gecA|fdAF DFAd|GBdg fedc|e2 A2 A2 Bc|
dafa fdad|Bgfg BGgB|Adce dAge|1 f2 d2 d2 fg:|2 f2 d2 d2||

